findly-builder/apps/searchassist/src/assets/icons/accordion-hide.svg

<svg width="6" height="12" viewBox="0 0 6 12" fill="none" xmlns="http://www.w3.org/2000/svg">
<path fill-rule="evenodd" clip-rule="evenodd" d="M5.98975 6C5.98975 5.82227 5.92481 5.66846 5.79492 5.53857L1.20117 0.944824C1.07129 0.814941 0.91748 0.75 0.739746 0.75C0.562011 0.75 0.408203 0.814941 0.27832 0.944824C0.148437 1.07471 0.0834957 1.22852 0.0834957 1.40625L0.0834961 10.5938C0.0834961 10.7715 0.148437 10.9253 0.27832 11.0552C0.408203 11.1851 0.562012 11.25 0.739746 11.25C0.917481 11.25 1.07129 11.1851 1.20117 11.0552L5.79492 6.46143C5.92481 6.33154 5.98975 6.17773 5.98975 6Z" fill="#202124"/>
</svg>

<svg width="6" height="12" fill="none" xmlns="http://www.w3.org/2000/svg"><path fill-rule="evenodd" clip-rule="evenodd" d="M5.99 6a.63.63 0 0 0-.195-.461L1.2.945A.63.63 0 0 0 .74.75a.63.63 0 0 0-.462.195.63.63 0 0 0-.195.461v9.188a.63.63 0 0 0 .195.461.63.63 0 0 0 .462.195.63.63 0 0 0 .461-.195l4.594-4.594A.63.63 0 0 0 5.99 6Z" fill="#202124"/></svg>
